public/tools-icons/postgresql.svg

<svg xmlns="http://www.w3.org/2000/svg" width="24" height="24" fill="none"><g clip-path="url(#clip0_140_72)"><path fill="#c8c2ff" d="M23.5594 14.7228C23.5457 14.6809 23.5268 14.6409 23.5031 14.6037C23.3641 14.3405 23.0263 14.2619 22.4957 14.3716C20.8424 14.7127 20.2022 14.5028 19.9701 14.3525C21.3121 12.3043 22.4151 9.8305 23.0112 7.5228C23.2826 6.4721 23.8094 3.9991 23.1334 2.7912C23.0902 2.70853 23.0397 2.62988 22.9825 2.5562C21.6931 0.908601 19.8007 0.0248014 17.5099 0.000501403C16.0152 -0.0152986 14.7394 0.346601 14.3938 0.479901C14.2226 0.447953 14.0506 0.420742 13.8779 0.398301C13.445 0.319911 13.0064 0.277168 12.5665 0.270501C11.3843 0.252101 10.3627 0.534701 9.51672 1.1111C8.65942 0.790001 4.72792 -0.533898 2.29482 1.1899C0.935923 2.1526 0.308623 3.8733 0.430223 6.3043C0.471123 7.1223 0.937123 9.6383 1.67252 12.0479C2.13232 13.5544 2.61122 14.7498 3.10592 15.6299C3.65892 16.6241 4.23182 17.2232 4.82022 17.4194C5.26762 17.5685 5.95292 17.5635 6.67832 16.6915C7.47952 15.728 8.26862 14.8657 8.62292 14.4846C9.05802 14.7201 9.52932 14.8471 10.0129 14.8618C10.013 14.8632 10.0131 14.8645 10.0133 14.8659C9.92912 14.9662 9.8467 15.068 9.76612 15.1713C9.42722 15.6015 9.35672 15.691 8.26592 15.9156C7.95572 15.9796 7.13152 16.1495 7.11952 16.7271C7.11702 16.8495 7.15242 16.958 7.21142 17.0539C7.43832 17.477 8.13302 17.6636 8.22642 17.687C9.56092 18.0205 10.7308 17.779 11.5978 17.0083C11.5808 19.2393 11.6753 21.4257 11.9432 22.0957C12.1644 22.6486 12.705 24.0002 14.4124 24C14.6629 24 14.9387 23.9709 15.242 23.9059C17.0239 23.5238 17.7977 22.7363 18.097 21C18.2473 20.1293 18.4986 18.1247 18.6358 16.8988C18.6527 16.8285 18.6715 16.7781 18.6928 16.7626C18.6935 16.7621 18.7625 16.7155 19.12 16.7933C19.1346 16.7965 19.1494 16.7987 19.1643 16.8001L19.4182 16.8224L19.4331 16.8234C20.2799 16.8618 21.3445 16.6808 21.9643 16.3926C22.6081 16.0938 23.77 15.3603 23.5594 14.7228ZM2.37102 11.8765C1.62752 9.4407 1.19312 6.9914 1.15872 6.3046C1.05012 4.1332 1.57582 2.6217 2.72102 1.8119C4.55772 0.513301 7.56082 1.2711 8.82902 1.6819C8.82582 1.6851 8.82242 1.688 8.81922 1.6913C6.79542 3.7353 6.84342 7.2273 6.84842 7.4408C6.84822 7.5231 6.85502 7.6397 6.86462 7.8001C6.89942 8.3874 6.96422 9.4805 6.79112 10.7185C6.63022 11.8689 6.98482 12.9949 7.76392 13.8077C7.84452 13.8918 7.92872 13.9708 8.01572 14.0451C7.66892 14.4165 6.91532 15.2377 6.11322 16.2027C5.54552 16.8852 5.15352 16.7544 5.02462 16.7114C4.63272 16.5807 4.21162 16.1243 3.78652 15.3891C3.30692 14.5501 2.82302 13.3574 2.37102 11.8765ZM8.37822 16.9636C8.20712 16.9208 8.05112 16.8504 7.94602 16.7864C8.03492 16.747 8.18342 16.6962 8.42932 16.6455C9.71262 16.3814 9.91082 16.1949 10.3436 15.6453C10.4428 15.5193 10.5552 15.3766 10.7109 15.2027C10.7444 15.1651 10.7695 15.1209 10.7846 15.0729C10.9554 14.9216 11.057 14.963 11.2215 15.0312C11.3775 15.0958 11.5293 15.2912 11.591 15.5064C11.6201 15.608 11.6529 15.8009 11.5458 15.9508C10.6415 17.2166 9.32422 17.2002 8.37822 16.9636ZM10.4722 12.9756L10.4197 13.1166C10.2867 13.4732 10.163 13.8047 10.0863 14.1196C9.41892 14.1175 8.76952 13.8324 8.27582 13.3172C7.64792 12.6621 7.36272 11.7508 7.49332 10.8168C7.67612 9.5089 7.60862 8.37 7.57232 7.7582C7.56732 7.6725 7.56282 7.5975 7.56012 7.5383C7.85582 7.2762 9.22602 6.5421 10.203 6.7659C10.6489 6.8681 10.9206 7.1716 11.0335 7.6939C11.6181 10.3977 11.1109 11.5246 10.7033 12.4302C10.6193 12.6168 10.54 12.7931 10.4722 12.9756ZM17.8359 17.5481C17.819 17.7249 17.8001 17.9241 17.7741 18.144L17.6281 18.5823C17.6165 18.617 17.6104 18.6534 17.6099 18.69C17.604 19.1647 17.5559 19.3389 17.4949 19.5593C17.4315 19.7885 17.3596 20.0484 17.3155 20.6168C17.2055 22.0311 16.4373 22.8435 14.8983 23.1733C13.3828 23.4984 13.114 22.6765 12.8771 21.9516C12.8529 21.8756 12.8272 21.8001 12.8002 21.725C12.5848 21.1392 12.6091 20.3131 12.6428 19.1699C12.6593 18.6087 12.6179 17.2686 12.3126 16.5237C12.317 16.2305 12.3232 15.9328 12.3316 15.6319C12.3326 15.5938 12.3275 15.5558 12.3163 15.5193C12.3067 15.449 12.292 15.3795 12.2724 15.3113C12.1498 14.883 11.8511 14.5247 11.4927 14.3762C11.3503 14.3172 11.0889 14.209 10.7749 14.2893C10.8419 14.0133 10.958 13.7018 11.0839 13.3644L11.1368 13.2224C11.1963 13.0624 11.2708 12.8967 11.3498 12.7212C11.7763 11.7736 12.3604 10.4759 11.7264 7.544C11.489 6.4459 10.696 5.9097 9.49402 6.0342C8.77332 6.1088 8.11412 6.3996 7.78522 6.5663C7.71928 6.59972 7.654 6.63443 7.58942 6.6704C7.68122 5.564 8.02802 3.4963 9.32512 2.1881C9.42147 2.09101 9.52271 1.9989 9.62842 1.9121C9.68091 1.90187 9.73039 1.87985 9.77312 1.8477C10.5255 1.2771 11.4676 0.997101 12.5751 1.0152C12.9842 1.0219 13.3768 1.0491 13.7493 1.0962C15.6883 1.4506 16.9932 2.543 17.7852 3.4789C18.5995 4.4412 19.0404 5.4104 19.2164 5.9332C17.8932 5.7986 16.993 6.06 16.5367 6.7122C15.5441 8.1311 17.0797 10.8851 17.8178 12.2086C17.9531 12.4512 18.07 12.6608 18.1067 12.7499C18.347 13.3324 18.6582 13.7212 18.8854 14.0051C18.955 14.0921 19.0226 14.1765 19.0739 14.2501C18.6731 14.3656 17.9531 14.6326 18.0187 15.9671C18.0064 16.1234 17.9764 16.414 17.9353 16.7819C17.8892 16.9896 17.8651 17.2422 17.8359 17.5481ZM18.7264 15.927C18.6859 15.0954 18.9955 15.0085 19.3231 14.9165C19.3684 14.9041 19.4135 14.8905 19.4581 14.8759C19.5004 14.9133 19.5452 14.9478 19.5923 14.9789C20.1626 15.3554 21.1746 15.4002 22.5991 15.1133C22.3975 15.2902 22.0802 15.5127 21.6458 15.7144C21.236 15.9047 20.5501 16.0474 19.8985 16.078C19.1788 16.1116 18.8126 15.9973 18.7264 15.927ZM19.2959 6.6558C19.29 7.0066 19.2417 7.325 19.1905 7.6575C19.1355 8.0151 19.0785 8.3849 19.0641 8.8337C19.0499 9.2705 19.1045 9.7246 19.1573 10.1638C19.2639 11.0508 19.3733 11.9641 18.9498 12.8652C18.8795 12.7406 18.8169 12.6118 18.7622 12.4796C18.7095 12.352 18.5953 12.147 18.4371 11.8634C17.8215 10.7593 16.3797 8.1738 17.1178 7.1188C17.4973 6.5761 18.4586 6.5527 19.2959 6.6558ZM19.5243 13.6695C19.4961 13.6335 19.4677 13.5977 19.439 13.5621L19.4035 13.5177C20.1297 12.3182 19.9877 11.1315 19.8613 10.0792C19.8094 9.6474 19.7604 9.2396 19.7728 8.8566C19.7857 8.4505 19.8394 8.1023 19.8913 7.7655C19.9552 7.3505 20.0201 6.9212 20.0022 6.415C20.0156 6.3619 20.021 6.2992 20.014 6.2248C19.9683 5.7393 19.4141 4.2868 18.2846 2.9718C17.677 2.2645 16.795 1.4746 15.5957 0.932301C16.1208 0.825701 16.8285 0.728801 17.6201 0.746401C19.6716 0.792001 21.2947 1.5599 22.4443 3.0288C22.4687 3.06069 22.491 3.09416 22.511 3.129C23.2341 4.4846 22.2348 9.4041 19.5243 13.6695ZM10.7077 7.5533C10.6827 7.7327 10.3988 7.9758 10.0866 7.9758C10.0596 7.97582 10.0325 7.97395 10.0057 7.9702C9.81842 7.9442 9.62922 7.8262 9.49982 7.6546C9.45402 7.5941 9.37952 7.4766 9.39432 7.3702C9.39982 7.3301 9.42042 7.2717 9.48682 7.2214C9.60502 7.132 9.83862 7.0988 10.0964 7.1347C10.4127 7.1788 10.739 7.3285 10.7077 7.5533ZM18.6382 7.1419C18.6493 7.2211 18.5892 7.3429 18.4851 7.4521C18.4168 7.5238 18.2731 7.6482 18.0772 7.6753C18.0524 7.67876 18.0273 7.68049 18.0022 7.6805C17.7087 7.6805 17.4608 7.4461 17.4415 7.3088C17.4175 7.1323 17.7056 6.9982 18.0026 6.9568C18.2996 6.9154 18.6137 6.9656 18.6382 7.1419Z"/></g><defs><clipPath id="clip0_140_72"><path fill="#fff" d="M0 0H24V24H0z"/></clipPath></defs></svg>

<svg xmlns="http://www.w3.org/2000/svg" width="24" height="24" fill="none" viewBox="0 0 24 24"><g clip-path="url(#a)"><path fill="#c8c2ff" d="M23.56 14.723a.5.5 0 0 0-.057-.12q-.21-.395-1.007-.231c-1.654.34-2.294.13-2.526-.02 1.342-2.048 2.445-4.521 3.041-6.83.272-1.05.798-3.523.122-4.73a1.6 1.6 0 0 0-.15-.236C21.693.91 19.8.025 17.51.001c-1.495-.016-2.77.346-3.116.479a10 10 0 0 0-.516-.082 8 8 0 0 0-1.312-.127c-1.182-.019-2.203.264-3.05.84C8.66.79 4.729-.534 2.296 1.19.935 2.153.309 3.873.43 6.304c.041.818.507 3.334 1.243 5.744q.69 2.26 1.433 3.582.83 1.493 1.714 1.79c.448.148 1.133.143 1.858-.729a56 56 0 0 1 1.945-2.206c.435.235.906.362 1.39.377v.004q-.126.15-.247.305c-.339.43-.41.52-1.5.745-.31.064-1.134.233-1.146.811a.6.6 0 0 0 .091.327c.227.423.922.61 1.015.633 1.335.333 2.505.092 3.372-.679-.017 2.231.077 4.418.345 5.088.221.553.762 1.904 2.47 1.904q.375.001.829-.094c1.782-.382 2.556-1.17 2.855-2.906.15-.87.402-2.875.539-4.101.017-.07.036-.12.057-.136 0 0 .07-.048.427.03q.023.006.044.007l.254.022.015.001c.847.039 1.912-.142 2.531-.43.644-.3 1.806-1.033 1.595-1.67M2.37 11.876c-.743-2.435-1.178-4.885-1.212-5.571-.109-2.172.417-3.683 1.562-4.493 1.837-1.299 4.84-.54 6.108-.13l-.01.01C6.795 3.734 6.843 7.226 6.85 7.44c0 .082.006.199.016.36.034.586.1 1.68-.074 2.918-.16 1.15.194 2.276.973 3.089q.12.126.252.237c-.347.371-1.1 1.193-1.903 2.158-.567.682-.96.551-1.088.508-.392-.13-.813-.587-1.238-1.322-.48-.839-.964-2.032-1.416-3.512m6.007 5.088a1.6 1.6 0 0 1-.432-.178c.089-.039.237-.09.483-.14 1.284-.265 1.482-.451 1.915-1a8 8 0 0 1 .367-.443.4.4 0 0 0 .074-.13c.17-.151.272-.11.437-.042.155.065.307.26.369.475.03.102.062.295-.045.445-.904 1.266-2.222 1.25-3.168 1.013m2.094-3.988-.052.14c-.133.357-.257.689-.334 1.004-.667-.002-1.316-.288-1.81-.803-.628-.655-.913-1.566-.783-2.5.183-1.308.116-2.447.08-3.059l-.013-.22c.296-.262 1.666-.996 2.643-.772.446.102.718.406.83.928.585 2.704.078 3.83-.33 4.736a9 9 0 0 0-.23.546m7.364 4.572q-.024.266-.062.596l-.146.438a.4.4 0 0 0-.018.108c-.006.475-.054.649-.115.87a4.8 4.8 0 0 0-.18 1.057c-.11 1.414-.878 2.226-2.417 2.556-1.515.325-1.784-.496-2.02-1.221a7 7 0 0 0-.078-.227c-.215-.586-.19-1.412-.157-2.555.016-.561-.025-1.901-.33-2.646q.006-.44.019-.892a.4.4 0 0 0-.016-.113q-.014-.106-.044-.208c-.122-.428-.42-.786-.78-.935-.142-.059-.403-.167-.717-.087.067-.276.183-.587.309-.925l.053-.142c.06-.16.134-.325.213-.5.426-.948 1.01-2.246.376-5.178-.237-1.098-1.03-1.634-2.232-1.51-.72.075-1.38.366-1.709.532a6 6 0 0 0-.196.104c.092-1.106.439-3.174 1.736-4.482q.145-.146.303-.276a.35.35 0 0 0 .145-.064c.752-.57 1.695-.85 2.802-.833q.616.01 1.174.081c1.94.355 3.244 1.447 4.036 2.383.814.962 1.255 1.931 1.431 2.454-1.323-.134-2.223.127-2.68.78-.992 1.418.544 4.172 1.282 5.496.135.242.252.452.289.54.24.583.551.972.778 1.256.07.087.138.172.189.245-.4.116-1.12.383-1.055 1.717a35 35 0 0 1-.084.815c-.046.208-.07.46-.1.766m.89-1.621c-.04-.832.27-.918.597-1.01l.135-.041q.063.056.134.103c.57.376 1.583.421 3.007.134a4 4 0 0 1-.953.601c-.41.19-1.096.333-1.748.364-.72.034-1.085-.08-1.172-.151m.57-9.271a7 7 0 0 1-.105 1.002c-.055.357-.113.727-.127 1.176-.014.437.04.89.093 1.33.107.887.216 1.8-.207 2.701a4 4 0 0 1-.188-.385 8 8 0 0 0-.325-.617c-.616-1.104-2.057-3.69-1.32-4.744.38-.543 1.342-.566 2.179-.463m.228 7.014-.085-.108-.035-.044c.726-1.2.584-2.386.457-3.439-.052-.432-.1-.84-.088-1.222a9 9 0 0 1 .118-1.091c.064-.415.13-.845.111-1.351a.6.6 0 0 0 .012-.19c-.046-.486-.6-1.938-1.73-3.253a7.8 7.8 0 0 0-2.688-2.04A9.3 9.3 0 0 1 17.62.746c2.052.046 3.675.814 4.824 2.283a1 1 0 0 1 .067.1c.723 1.356-.276 6.275-2.987 10.54m-8.816-6.117c-.025.18-.31.423-.621.423l-.081-.006a.8.8 0 0 1-.506-.315c-.046-.06-.12-.178-.106-.285a.22.22 0 0 1 .093-.149c.118-.089.352-.122.61-.086.316.044.642.194.61.418m7.93-.411c.011.08-.049.2-.153.31a.72.72 0 0 1-.408.223l-.075.006c-.293 0-.541-.235-.56-.372-.024-.177.264-.31.56-.352.298-.042.612.009.636.185"/></g><defs><clipPath id="a"><path fill="#fff" d="M0 0h24v24H0z"/></clipPath></defs></svg>
